src/assets/statusWrong.svg

<svg width="21" height="19" viewBox="0 0 21 19" fill="none" xmlns="http://www.w3.org/2000/svg">
<path d="M9.37559 14.0625C9.37559 14.3609 9.49412 14.647 9.7051 14.858C9.91608 15.069 10.2022 15.1875 10.5006 15.1875C10.799 15.1875 11.0851 15.069 11.2961 14.858C11.5071 14.647 11.6256 14.3609 11.6256 14.0625C11.6256 13.7641 11.5071 13.478 11.2961 13.267C11.0851 13.056 10.799 12.9375 10.5006 12.9375C10.2022 12.9375 9.91608 13.056 9.7051 13.267C9.49412 13.478 9.37559 13.7641 9.37559 14.0625ZM9.75059 6.9375V11.25C9.75059 11.3531 9.83497 11.4375 9.93809 11.4375H11.0631C11.1662 11.4375 11.2506 11.3531 11.2506 11.25V6.9375C11.2506 6.83437 11.1662 6.75 11.0631 6.75H9.93809C9.83497 6.75 9.75059 6.83437 9.75059 6.9375ZM20.8998 17.25L11.1498 0.375C11.0045 0.124219 10.7537 0 10.5006 0C10.2475 0 9.99434 0.124219 9.85137 0.375L0.101375 17.25C-0.186906 17.7516 0.174031 18.375 0.750594 18.375H20.2506C20.8272 18.375 21.1881 17.7516 20.8998 17.25ZM2.53653 16.5961L10.5006 2.81016L18.4647 16.5961H2.53653Z" fill="#FA541C"/>
</svg>

<svg width="21" height="19" fill="none" xmlns="http://www.w3.org/2000/svg"><path d="M9.376 14.063a1.125 1.125 0 1 0 2.25 0 1.125 1.125 0 0 0-2.25 0Zm.375-7.126v4.313c0 .103.084.188.187.188h1.125a.188.188 0 0 0 .188-.188V6.937a.188.188 0 0 0-.188-.187H9.938a.188.188 0 0 0-.187.188ZM20.9 17.25 11.15.375A.741.741 0 0 0 10.5 0a.739.739 0 0 0-.649.375L.101 17.25a.75.75 0 0 0 .65 1.125h19.5a.75.75 0 0 0 .649-1.125Zm-18.363-.654L10.5 2.81l7.964 13.786H2.537Z" fill="#FA541C"/></svg>
